X:9090
T:La varsovienne
R:
O:Alsace - Elsass
A:
S:
B:La tradition Alsacienne.
Z:transcription (partition) : eric.forgeot@caramail.com
N:p.59
N:
M:3/4
L:1/8
Q:1/4=130
K:G
DD | BB B2 DD | BB B2 DD | BB B2 c2 | A4 DD | A2 A2 DD | A2 A2 DD | A2A2B2 |
G4 d2 | d2B2e2 | c4c2 | c2A2d2 | B4D2 | G2G2AA | B2B2c2 | d2A2B2 | G2 z2 ||


